src/icons/main-canary.svg

<?xml version="1.0" encoding="UTF-8"?>
<svg width="14px" height="13px" viewBox="0 0 14 13" version="1.1" xmlns="http://www.w3.org/2000/svg" xmlns:xlink="http://www.w3.org/1999/xlink">
    <!-- Generator: Sketch 59 (86127) - https://sketch.com -->
    <title>HDL/Icon/Standard/canary</title>
    <desc>Created with Sketch.</desc>
    <g id="Colors" stroke="none" stroke-width="1" fill="none" fill-rule="evenodd">
        <g id="Main-Icons" transform="translate(-623.000000, -1160.000000)" fill="#4D5969">
            <g id="Canary" transform="translate(602.000000, 1141.000000)">
                <g id="HDL/Icon/Standard/canary" transform="translate(21.000000, 19.000000)">
                    <path d="M10.1111111,2.31963362 C10.5793333,2.31963362 10.8888889,2.62737168 10.8888889,3.09284482 C10.8888889,3.55831797 10.5793333,3.86605603 10.1111111,3.86605603 C9.64288889,3.86605603 9.33333333,3.55831797 9.33333333,3.09284482 C9.33333333,2.62737168 9.64288889,2.31963362 10.1111111,2.31963362 M8.94444444,0 C7,0 5.44444444,1.54642241 5.44444444,3.47945043 C5.44444444,7.8109796 3.34522222,9.12466544 0,8.50532326 C0,8.50532326 1.91722222,11.235532 5.80922222,11.5741985 C5.58755556,11.8278118 5.49344444,12.0814251 5.49344444,12.0814251 L6.95177778,12.6613335 C6.95177778,12.6613335 6.92066667,12.6737049 7.02411111,12.5886516 C7.12755556,12.5043716 7.31888889,12.3713793 7.77777778,12.3713793 C8.69866667,12.3713793 9.64911111,13 9.64911111,13 L10.5731111,11.7435318 C10.5731111,11.7435318 9.92911111,11.2842443 8.99344444,11.0182597 C10.9526667,9.96437281 12.2678889,7.52643788 12.4203333,4.13204068 L14,3.09284482 L12.2017778,2.24695176 C11.7001111,0.93635877 10.4455556,0 8.94444444,0" id="Fill-1"></path>
                </g>
            </g>
        </g>
    </g>
</svg>

<?xml version="1.0" encoding="utf-8"?>
<!-- Generator: Adobe Illustrator 20.1.0, SVG Export Plug-In . SVG Version: 6.00 Build 0)  -->
<svg version="1.1" id="Layer_1" xmlns="http://www.w3.org/2000/svg" xmlns:xlink="http://www.w3.org/1999/xlink" x="0px" y="0px"
	 viewBox="0 0 14 13" style="enable-background:new 0 0 14 13;" xml:space="preserve">
<style type="text/css">
	.st0{fill:#4D5969;}
</style>
<title>HDL/Icon/Standard/canary</title>
<desc>Created with Sketch.</desc>
<g id="Colors">
	<g id="Main-Icons" transform="translate(-623.000000, -1160.000000)">
		<g id="Canary" transform="translate(602.000000, 1141.000000)">
			<g id="HDL_x2F_Icon_x2F_Standard_x2F_canary" transform="translate(21.000000, 19.000000)">
				<path id="Fill-1" class="st0" d="M10.1,2.3c0.5,0,0.8,0.3,0.8,0.8s-0.3,0.8-0.8,0.8c-0.5,0-0.8-0.3-0.8-0.8S9.6,2.3,10.1,2.3
					 M8.9,0C7,0,5.4,1.5,5.4,3.5c0,4.3-2.1,5.6-5.4,5c0,0,1.9,2.7,5.8,3.1c-0.2,0.3-0.3,0.5-0.3,0.5L7,12.7c0,0,0,0,0.1-0.1
					c0.1-0.1,0.3-0.2,0.8-0.2c0.9,0,1.9,0.6,1.9,0.6l0.9-1.3c0,0-0.6-0.5-1.6-0.7c2-1.1,3.3-3.5,3.4-6.9l1.6-1l-1.8-0.8
					C11.7,0.9,10.4,0,8.9,0"/>
			</g>
		</g>
	</g>
</g>
</svg>
